X:8
T:BluemÃ¤ttler (Naturjuiz)  C 2+
S:Adolf Zimmermann (30.3.1919-18.7.2002)
S:Dirigenten-Notiz, Edi Gasser
%C:Unterwalden (CH)
M:3/4
R:Naturjodel
L:1/8
K:C
[P:A] G2 | g3f de | c3de2 | G4g/2e/2c/2e/2 | d3ef2 | G2^F/2G/2 (3eGd | c4f2 | e4G2 | 
g3f de | c3de2 | G4 g/2e/2c/2e/2 | d3ef2 | G2^F/2G/2 (3eGd | (c6 | c2)z2 || 
M:3/4
L:1/8
[P:B] c2 (3edc | B3F (3GBd | g3d (3fed | c3E (3Gce | g3c (3edc | 
B3F (3GBd | g2G2g2 | f2d2e2 | c6 | z2c2 (3edc | B3F (3GBd | g3d (3fed | 
c3E (3Gce | g3c (3edc | B3F (3GBd | g2G2g2 | f2d2e2 | (c6 | c2)z2 || 
M:3/4
L:1/8
[P:C] GG | d2GG GG | gf df ed | c2GG GG | eG ce dc | 
B2GG GG | fG Bf ed | c2GG GG | e4GG | d2GG GG | gf df ed | 
c2GG GG | eG ce dc | B2GG GG | fG Bf ed | (c6 | c2)z2 |]
W:
W:Reihenfolge: A-B-A-C
%W:UJV-Naturjodelsammlung: Code-Nr: 04-04
%W:http://www.naturjodler.ch/code 04.htm  (with AUDIO)
%April 28, 2018

